outputs/icons/communication/sync_round.svg

<svg xmlns="http://www.w3.org/2000/svg" width="1200" height="1200" fill="none"><g clip-path="url(#a)"><path fill="#000" d="M600 200.001v-89.499c0-22.501-27-33.5-42.5-17.5l-140 139.499c-10 10.001-10 25.501 0 35.501L557 407.501c16 15.5 43 4.501 43-18v-89.5c165.5 0 300 134.501 300 299.999 0 39.5-7.5 78-22 112.5-7.5 18-2 38.5 11.5 52 25.5 25.5 68.5 16.5 82-17C990 702 1000 652 1000 600c0-220.999-179-399.999-400-399.999M600 900c-165.5 0-300-134.5-300-300 0-39.5 7.5-78 22-112.498 7.5-18.001 2-38.501-11.5-52.001-25.5-25.499-68.5-16.5-82 17C210 498.001 200 548 200 600c0 221 179 400 400 400v89.5c0 22.5 27 33.5 42.5 17.5L782 967.5c10-10 10-25.5 0-35.5L642.5 792.5C627 777 600 788 600 810.5z"/></g><defs><clipPath id="a"><path fill="#fff" d="M0 0h1200v1200H0z"/></clipPath></defs></svg>

<svg width="1200" height="1200" viewBox="0 0 1200 1200" fill="none" xmlns="http://www.w3.org/2000/svg"><g clip-path="url(#clip0_238_2789)"><path d="M600 200.001V110.502C600 88.001 573 77.002 557.5 93.002L417.5 232.501C407.5 242.502 407.5 258.002 417.5 268.002L557 407.501C573 423.001 600 412.002 600 389.501V300.001C765.5 300.001 900 434.502 900 600C900 639.5 892.5 678 878 712.5C870.5 730.5 876 751 889.5 764.5C915 790 958 781 971.5 747.5C990 702 1000 652 1000 600C1000 379.001 821 200.001 600 200.001ZM600 900C434.5 900 300 765.5 300 600C300 560.5 307.5 522 322 487.502C329.5 469.501 324 449.001 310.5 435.501C285 410.002 242 419.001 228.5 452.501C210 498.001 200 548 200 600C200 821 379 1000 600 1000V1089.5C600 1112 627 1123 642.5 1107L782 967.5C792 957.5 792 942 782 932L642.5 792.5C627 777 600 788 600 810.5V900Z" fill="black"/></g><defs><clipPath id="clip0_238_2789"><path width="24" fill="white" d="M0 0H1200V1200H0V0z"/></clipPath></defs></svg>
